static/img/kroki/c08eac20a2a468db27367d4c189709e8.svg

<?xml version="1.0" encoding="us-ascii" standalone="no"?><svg xmlns="http://www.w3.org/2000/svg" xmlns:xlink="http://www.w3.org/1999/xlink" contentStyleType="text/css" height="152px" preserveAspectRatio="none" style="width:680px;height:152px;" version="1.1" viewBox="0 0 680 152" width="680px" zoomAndPan="magnify"><defs/><g><!--class azure_network_ddos_protection_plan--><g id="elem_azure_network_ddos_protection_plan"><rect codeLine="23" fill="#3D176E" height="39.7891" id="azure_network_ddos_protection_plan" rx="2.5" ry="2.5" style="stroke:#000D19;stroke-width:0.5;" width="353" x="166" y="7"/><ellipse cx="181" cy="26.8945" fill="#ADD1B2" rx="11" ry="11" style="stroke:#181818;stroke-width:1.0;"/><path d="M183.9688,32.5352 Q183.3906,32.832 182.75,32.9727 Q182.1094,33.1289 181.4063,33.1289 Q178.9063,33.1289 177.5781,31.4883 Q176.2656,29.832 176.2656,26.707 Q176.2656,23.582 177.5781,21.9258 Q178.9063,20.2695 181.4063,20.2695 Q182.1094,20.2695 182.75,20.4258 Q183.4063,20.582 183.9688,20.8789 L183.9688,23.5977 Q183.3438,23.0195 182.75,22.7539 Q182.1563,22.4727 181.5313,22.4727 Q180.1875,22.4727 179.5,23.5508 Q178.8125,24.6133 178.8125,26.707 Q178.8125,28.8008 179.5,29.8789 Q180.1875,30.9414 181.5313,30.9414 Q182.1563,30.9414 182.75,30.6758 Q183.3438,30.3945 183.9688,29.8164 L183.9688,32.5352 Z " fill="#000000"/><text fill="#D9B8FF" font-family="Helvetica" font-size="17" lengthAdjust="spacing" textLength="311" x="200" y="32.7798">azure_network_ddos_protection_plan</text></g><!--class azure_network_public_ip_address--><g id="elem_azure_network_public_ip_address"><rect codeLine="26" fill="#3D176E" height="39.7891" id="azure_network_public_ip_address" rx="2.5" ry="2.5" style="stroke:#000D19;stroke-width:0.5;" width="321" x="7" y="106.79"/><ellipse cx="22" cy="126.6845" fill="#ADD1B2" rx="11" ry="11" style="stroke:#181818;stroke-width:1.0;"/><path d="M24.9688,132.3252 Q24.3906,132.622 23.75,132.7627 Q23.1094,132.9189 22.4063,132.9189 Q19.9063,132.9189 18.5781,131.2783 Q17.2656,129.622 17.2656,126.497 Q17.2656,123.372 18.5781,121.7158 Q19.9063,120.0595 22.4063,120.0595 Q23.1094,120.0595 23.75,120.2158 Q24.4063,120.372 24.9688,120.6689 L24.9688,123.3877 Q24.3438,122.8095 23.75,122.5439 Q23.1563,122.2627 22.5313,122.2627 Q21.1875,122.2627 20.5,123.3408 Q19.8125,124.4033 19.8125,126.497 Q19.8125,128.5908 20.5,129.6689 Q21.1875,130.7314 22.5313,130.7314 Q23.1563,130.7314 23.75,130.4658 Q24.3438,130.1845 24.9688,129.6064 L24.9688,132.3252 Z " fill="#000000"/><text fill="#D9B8FF" font-family="Helvetica" font-size="17" lengthAdjust="spacing" textLength="279" x="41" y="132.5698">azure_network_public_ip_address</text></g><!--class azure_network_virtual_network--><g id="elem_azure_network_virtual_network"><rect codeLine="29" fill="#3D176E" height="39.7891" id="azure_network_virtual_network" rx="2.5" ry="2.5" style="stroke:#000D19;stroke-width:0.5;" width="310" x="363.5" y="106.79"/><ellipse cx="378.5" cy="126.6845" fill="#ADD1B2" rx="11" ry="11" style="stroke:#181818;stroke-width:1.0;"/><path d="M381.4688,132.3252 Q380.8906,132.622 380.25,132.7627 Q379.6094,132.9189 378.9063,132.9189 Q376.4063,132.9189 375.0781,131.2783 Q373.7656,129.622 373.7656,126.497 Q373.7656,123.372 375.0781,121.7158 Q376.4063,120.0595 378.9063,120.0595 Q379.6094,120.0595 380.25,120.2158 Q380.9063,120.372 381.4688,120.6689 L381.4688,123.3877 Q380.8438,122.8095 380.25,122.5439 Q379.6563,122.2627 379.0313,122.2627 Q377.6875,122.2627 377,123.3408 Q376.3125,124.4033 376.3125,126.497 Q376.3125,128.5908 377,129.6689 Q377.6875,130.7314 379.0313,130.7314 Q379.6563,130.7314 380.25,130.4658 Q380.8438,130.1845 381.4688,129.6064 L381.4688,132.3252 Z " fill="#000000"/><text fill="#D9B8FF" font-family="Helvetica" font-size="17" lengthAdjust="spacing" textLength="268" x="397.5" y="132.5698">azure_network_virtual_network</text></g><!--link azure_network_ddos_protection_plan to azure_network_public_ip_address--><g id="link_azure_network_ddos_protection_plan_azure_network_public_ip_address"><path codeLine="32" d="M307.93,47.22 C277.25,64.36 237.8972,86.3422 207.2372,103.4822 " fill="none" id="azure_network_ddos_protection_plan-to-azure_network_public_ip_address" style="stroke:#1A83AF;stroke-width:2.0;"/><polygon fill="#1A83AF" points="202,106.41,211.8076,105.5098,206.3643,103.9702,207.9039,98.5269,202,106.41" style="stroke:#1A83AF;stroke-width:2.0;"/></g><!--link azure_network_ddos_protection_plan to azure_network_virtual_network--><g id="link_azure_network_ddos_protection_plan_azure_network_virtual_network"><path codeLine="33" d="M377.27,47.22 C408.13,64.36 447.7259,86.3546 478.5559,103.4946 " fill="none" id="azure_network_ddos_protection_plan-to-azure_network_virtual_network" style="stroke:#1A83AF;stroke-width:2.0;"/><polygon fill="#1A83AF" points="483.8,106.41,477.8775,98.5408,479.4299,103.9805,473.9903,105.5329,483.8,106.41" style="stroke:#1A83AF;stroke-width:2.0;"/></g><!--SRC=[fP9FIyD04CNl-HGBFHSQYxQz2B5Gz5B4UXC9a-niksIp6sOdBQtutMsiofhqZ-1nv_sOzzwmAorHO5dnLfHOPaW-yeMs5H2K8Y5ocwapZaHFAL33KLkSESiNWJcKAExHh95r3ctYUQNpmgBtuYgGxY0lbkHgAm_hcS3wlOIM0sfgmFk4cNHMCmPXv2GRAzKcsqjxGncFRh23EP98NyXWC93nf8rSj3hR-uTOw1sAE3pQt35sOdOiFgcpAHiY2Daf-gsVpFW8Kcgx5DV1xEcGYIpIh_bY1T9j6bg1yQ6DPoHqlArmscc5ax5KewFmmoauoflJ2TZLXAb5tZWgKYcTJolQDyfPEvjM1gnuYwBtetHLPqRdgQxIVKDg_jr9TAs9Qp3VxmFu1-_-IozEniDazjg_lUJ-ptsjYD47]--></g></svg>

<svg xmlns="http://www.w3.org/2000/svg" width="680" height="152" viewBox="0 0 680 152"><rect width="353" height="39.789" x="166" y="7" fill="#3D176E" rx="2.5" ry="2.5" style="stroke:#000d19;stroke-width:.5"/><circle cx="181" cy="26.895" r="11" fill="#ADD1B2" style="stroke:#181818;stroke-width:1"/><path d="M183.969 32.535q-.578.297-1.219.438-.64.156-1.344.156-2.5 0-3.828-1.64-1.312-1.657-1.312-4.782t1.312-4.781q1.328-1.656 3.828-1.656.703 0 1.344.156.656.156 1.219.453v2.719q-.625-.578-1.219-.844-.594-.281-1.219-.281-1.344 0-2.031 1.078-.687 1.062-.687 3.156t.687 3.172q.688 1.062 2.031 1.062.625 0 1.219-.265.594-.281 1.219-.86z"/><text x="200" y="32.78" fill="#D9B8FF" font-family="Helvetica" font-size="17" textLength="311">azure_network_ddos_protection_plan</text><rect width="321" height="39.789" x="7" y="106.79" fill="#3D176E" rx="2.5" ry="2.5" style="stroke:#000d19;stroke-width:.5"/><circle cx="22" cy="126.684" r="11" fill="#ADD1B2" style="stroke:#181818;stroke-width:1"/><path d="M24.969 132.325q-.578.297-1.219.438-.64.156-1.344.156-2.5 0-3.828-1.64-1.312-1.657-1.312-4.782t1.312-4.781q1.328-1.656 3.828-1.656.703 0 1.344.156.656.156 1.219.453v2.719q-.625-.579-1.219-.844-.594-.281-1.219-.281-1.343 0-2.031 1.078-.687 1.062-.687 3.156t.687 3.172q.688 1.062 2.031 1.062.625 0 1.219-.265.594-.281 1.219-.86z"/><text x="41" y="132.57" fill="#D9B8FF" font-family="Helvetica" font-size="17" textLength="279">azure_network_public_ip_address</text><rect width="310" height="39.789" x="363.5" y="106.79" fill="#3D176E" rx="2.5" ry="2.5" style="stroke:#000d19;stroke-width:.5"/><circle cx="378.5" cy="126.684" r="11" fill="#ADD1B2" style="stroke:#181818;stroke-width:1"/><path d="M381.469 132.325q-.578.297-1.219.438-.64.156-1.344.156-2.5 0-3.828-1.64-1.312-1.657-1.312-4.782t1.312-4.781q1.328-1.656 3.828-1.656.703 0 1.344.156.656.156 1.219.453v2.719q-.625-.579-1.219-.844-.594-.281-1.219-.281-1.344 0-2.031 1.078-.687 1.062-.687 3.156t.687 3.172q.688 1.062 2.031 1.062.625 0 1.219-.265.594-.281 1.219-.86z"/><text x="397.5" y="132.57" fill="#D9B8FF" font-family="Helvetica" font-size="17" textLength="268">azure_network_virtual_network</text><path fill="none" d="M307.93 47.22c-30.68 17.14-70.033 39.122-100.693 56.262" style="stroke:#1a83af;stroke-width:2"/><path fill="#1A83AF" d="m202 106.41 9.808-.9-5.444-1.54 1.54-5.443z" style="stroke:#1a83af;stroke-width:2"/><path fill="none" d="M377.27 47.22c30.86 17.14 70.456 39.135 101.286 56.275" style="stroke:#1a83af;stroke-width:2"/><path fill="#1A83AF" d="m483.8 106.41-5.923-7.87 1.553 5.44-5.44 1.553z" style="stroke:#1a83af;stroke-width:2"/></svg>
